X: 37526
T: Slippery, The
R: slide
M: 12/8
K: Amajor
|:c3 c2e ecB A2c|B2A GAB A2B c2e|
e2c c2e ecB A2c|1 B2A GAB A3 A2B:|2 B2A GAB A3 a2g||
|:f2f agf e2A c2A|B2A GAB A2B c2e|
f2f agf e2d cBA|1 B2A GAB A3 a2g:|2 B2E GAB A3 A2B||

